findly-builder/apps/searchassist/src/assets/icons/resultranking/Unsee.svg

<svg width="16" height="16" viewBox="0 0 16 16" fill="none" xmlns="http://www.w3.org/2000/svg">
<path d="M7.99995 2C6.58133 2 5.25844 2.36085 4.15019 2.98741C3.91011 3.12314 3.84769 3.43449 3.99968 3.66463C4.15188 3.89509 4.46133 3.95656 4.70332 3.82347C5.64574 3.30517 6.77818 3 7.99995 3C9.23483 3 10.3793 3.31191 11.3278 3.84073C11.5689 3.97513 11.8785 3.91575 12.0322 3.68653C12.1859 3.45731 12.1255 3.14529 11.886 3.00808C10.7702 2.36877 9.4332 2 7.99995 2ZM2.40453 6.80604C2.28743 6.55585 2.00623 6.4132 1.74439 6.5012C1.48307 6.58903 1.34043 6.87327 1.45826 7.12249C1.63518 7.4967 1.86201 7.8469 2.10932 8.18359L0.999947 9.29297C0.804705 9.48821 0.804705 9.80476 0.999947 10C1.19519 10.1952 1.51174 10.1952 1.70698 10L2.79487 8.91211C3.29032 9.396 3.85834 9.79803 4.50776 10.123L3.94091 11.4934C3.83543 11.7484 3.95654 12.0407 4.21149 12.1463C4.46673 12.2521 4.75937 12.1308 4.86488 11.8754L5.41792 10.5371C6.07176 10.7608 6.76944 10.884 7.49995 10.9297V12.3984C7.49995 12.6746 7.7238 12.8984 7.99995 12.8984C8.27609 12.8984 8.49995 12.6746 8.49995 12.3984V10.9297C9.23048 10.884 9.92813 10.7609 10.582 10.5371L11.135 11.8754C11.2405 12.1308 11.5332 12.2521 11.7884 12.1463C12.0434 12.0407 12.1645 11.7484 12.059 11.4934L11.4921 10.123C12.1415 9.79791 12.7096 9.39611 13.205 8.91211L14.2929 10C14.4882 10.1952 14.8047 10.1952 14.9999 10C15.1952 9.80476 15.1952 9.48821 14.9999 9.29297L13.8906 8.18359C14.1379 7.84688 14.3646 7.49583 14.5415 7.12116C14.6593 6.8717 14.5163 6.58733 14.2546 6.49993C13.9931 6.41259 13.7127 6.55518 13.5959 6.80492C12.7361 8.6431 10.5736 10 7.99995 10C5.42675 10 3.26468 8.64362 2.40453 6.80604Z" fill="#0D6EFD"/>
</svg>

<svg width="16" height="16" fill="none" xmlns="http://www.w3.org/2000/svg"><path d="M8 2a7.82 7.82 0 0 0-3.85.987.473.473 0 0 0-.15.678c.152.23.461.292.703.158A6.846 6.846 0 0 1 8 3a6.84 6.84 0 0 1 3.328.84c.24.135.55.076.704-.153a.473.473 0 0 0-.146-.679A7.816 7.816 0 0 0 8 2ZM2.405 6.806c-.118-.25-.399-.393-.66-.305-.262.088-.405.372-.287.621.177.375.404.725.651 1.062L1 9.293a.5.5 0 1 0 .708.707l1.088-1.088a6.748 6.748 0 0 0 1.713 1.211l-.567 1.37a.5.5 0 1 0 .924.382l.553-1.338a7.946 7.946 0 0 0 2.082.393v1.468a.5.5 0 1 0 1 0V10.93a7.942 7.942 0 0 0 2.082-.393l.553 1.338a.5.5 0 1 0 .924-.382l-.567-1.37a6.748 6.748 0 0 0 1.713-1.21L14.293 10A.5.5 0 0 0 15 9.293l-1.11-1.11a6.34 6.34 0 0 0 .651-1.062c.118-.25-.025-.534-.286-.621-.262-.087-.542.055-.66.305C12.737 8.643 10.575 10 8 10c-2.573 0-4.735-1.356-5.595-3.194Z" fill="#0D6EFD"/></svg>
